X: 7
I: linebreak $
T: Lightly Love
T: longways for as many as will
T: Light of Love, or Earl of Bedford
P: One round: AA BBB BBB; end with AA BB
C: 16th. C English
K: C major
M: 6/4
L: 1/8
P: A
 |: "C"G3Gc2 B2G2E2 | "F"F3GE2 "G"D4D2 | "C"G3Gc2 B2G2E2 | "F"F3E"G"D2 "C"C4C2 :: 
P: B
"F"F3GF2 "C"E3DC2 | "F"F3GA2 "G"D4D2 | 
"C"G3Gc2 B2G2E2 | "F"F3E"G"D2 "C"C4C2 :| 

